X:109
T:Prince Edward's Birth Day. JJo8.109
B:J.Johnson Choice Collection Vol 8 1758
Z:vmp.Simon Wilson 2013 www.village-music-project.org.uk
M:6/8
L:1/8
Q:3/8=120
K:G
|:D|G2AB2c|dec BAG|ABc BAG|F2G AFD|G2AB2c|def gab|agf ed^c|d3-d2:|
|:e|edc BA^G|A2Bcde|dcB AGF|G2A Bcd|efg dcB|ecAF2f|gec BcA|G3-G2:|
